packages/match-icons/product/svg/programmable-fax.svg

<svg fill="none" height="32" viewBox="0 0 32 32" width="32" xmlns="http://www.w3.org/2000/svg" xmlns:xlink="http://www.w3.org/1999/xlink"><clipPath id="a"><path d="m0 0h32v32h-32z"/></clipPath><g clip-path="url(#a)" fill="#394762"><path d="m29.81 1.90002c-1.0592-.72633-2.3572-1.017258-3.6251-.81246-1.2678.20479-2.4083.8896-3.1849 1.91246h-20.5c-.66304 0-1.29893.2634-1.767767.73224-.468841.46884-.732233 1.10472-.732233 1.76776v14.99998c0 .6631.263392 1.2989.732233 1.7678.468837.4688 1.104727.7322 1.767767.7322h3.5v4.33c-.00483.3346.08694.6636.2643.9473.17737.2838.4328.5104.7357.6527.3061.1408.64633.1901.97982.1423.33348-.0479.64606-.1911.90018-.4123l6.5-5.66h11.62c.6566 0 1.3068-.1293 1.9134-.3806s1.1578-.6196 1.6221-1.0838c.4643-.4643.8326-1.0155 1.0839-1.6222.2513-.6066.3806-1.2568.3806-1.9134v-11.69998c.0157-.85546-.1752-1.70208-.5564-2.46806-.3813-.76597-.9416-1.42869-1.6336-1.93194zm.19 16.54998c-.1104.7329-.4883 1.399-1.0607 1.8699-.5724.4708-1.2989.7131-2.0393.6801h-11.9c-.2431.0004-.4777.0892-.66.25l-6.34 5.53v-4.78c.00209-.1333-.02249-.2656-.07229-.3893-.0498-.1236-.12382-.2361-.21771-.3307-.19034-.1835-.44562-.2842-.71-.28h-4.5c-.13261 0-.25979-.0527-.35355-.1464-.09377-.0938-.14645-.221-.14645-.3536v-14.99998c0-.1326.05268-.25978.14645-.35355.09376-.09377.22094-.14645.35355-.14645h19.5v10.63998c0 .3607.1433.7066.3983.9617.2551.255.601.3983.9617.3983.2339-.0058.4627-.0702.6653-.1872.2027-.1171.3728-.283.4947-.4828.2679-.4126.6356-.7509 1.0692-.9834.4336-.2326.9189-.3518 1.4108-.3466.4349-.0049.8656.0848 1.2624.2628.3967.1781.75.4403 1.0354.7685s.496.7145.6172 1.1321c.1213.4176.1503.8567.085 1.2866zm0-4.45c-.8655-.6491-1.9181-1-3-1s-2.1345.3509-3 1v-7.89998c-.033-.74045.2093-1.46689.6802-2.0393.4708-.57241 1.1369-.95025 1.8698-1.0607.43-.06526.869-.03626 1.2866.08499.4177.12126.804.33186 1.1321.61723.3282.28536.5904.63866.7685 1.03543.178.39676.2677.82749.2628 1.26235z"/><path d="m16 9h-9c-.55228 0-1 .44772-1 1 0 .5523.44772 1 1 1h9c.5523 0 1-.4477 1-1 0-.55228-.4477-1-1-1z"/><path d="m14 15h-7c-.55228 0-1 .4477-1 1s.44772 1 1 1h7c.5523 0 1-.4477 1-1s-.4477-1-1-1z"/></g></svg>

<svg width="32" height="32" viewBox="0 0 32 32" fill="none" xmlns="http://www.w3.org/2000/svg">
<g clip-path="url(#clip0)">
<path d="M29.81 1.90002C28.7508 1.17369 27.4528 0.882762 26.1849 1.08756C24.9171 1.29235 23.7766 1.97716 23 3.00002H2.5C1.83696 3.00002 1.20107 3.26342 0.732233 3.73226C0.263392 4.2011 0 4.83698 0 5.50002L0 20.5C0 21.1631 0.263392 21.7989 0.732233 22.2678C1.20107 22.7366 1.83696 23 2.5 23H6V27.33C5.99517 27.6646 6.08694 27.9936 6.2643 28.2773C6.44167 28.5611 6.6971 28.7877 7 28.93C7.3061 29.0708 7.64633 29.1201 7.97982 29.0723C8.3133 29.0244 8.62588 28.8812 8.88 28.66L15.38 23H27C27.6566 23 28.3068 22.8707 28.9134 22.6194C29.52 22.3681 30.0712 21.9998 30.5355 21.5356C30.9998 21.0713 31.3681 20.5201 31.6194 19.9134C31.8707 19.3068 32 18.6566 32 18V6.30002C32.0157 5.44456 31.8248 4.59794 31.4436 3.83196C31.0623 3.06599 30.502 2.40327 29.81 1.90002V1.90002ZM30 18.45C29.8896 19.1829 29.5117 19.849 28.9393 20.3199C28.3669 20.7907 27.6404 21.033 26.9 21H15C14.7569 21.0004 14.5223 21.0892 14.34 21.25L8 26.78V22C8.00209 21.8667 7.97751 21.7344 7.92771 21.6107C7.87791 21.4871 7.80389 21.3746 7.71 21.28C7.51966 21.0965 7.26438 20.9958 7 21H2.5C2.36739 21 2.24021 20.9473 2.14645 20.8536C2.05268 20.7598 2 20.6326 2 20.5V5.50002C2 5.36742 2.05268 5.24024 2.14645 5.14647C2.24021 5.0527 2.36739 5.00002 2.5 5.00002H22V15.64C22 16.0007 22.1433 16.3466 22.3983 16.6017C22.6534 16.8567 22.9993 17 23.36 17C23.5939 16.9942 23.8227 16.9298 24.0253 16.8128C24.228 16.6957 24.3981 16.5298 24.52 16.33C24.7879 15.9174 25.1556 15.5791 25.5892 15.3466C26.0228 15.114 26.5081 14.9948 27 15C27.4349 14.9951 27.8656 15.0848 28.2624 15.2628C28.6591 15.4409 29.0124 15.7031 29.2978 16.0313C29.5832 16.3595 29.7938 16.7458 29.915 17.1634C30.0363 17.581 30.0653 18.0201 30 18.45V18.45ZM30 14C29.1345 13.3509 28.0819 13 27 13C25.9181 13 24.8655 13.3509 24 14V6.10002C23.967 5.35957 24.2093 4.63313 24.6802 4.06072C25.151 3.48831 25.8171 3.11047 26.55 3.00002C26.98 2.93476 27.419 2.96376 27.8366 3.08501C28.2543 3.20627 28.6406 3.41687 28.9687 3.70224C29.2969 3.9876 29.5591 4.3409 29.7372 4.73767C29.9152 5.13443 30.0049 5.56516 30 6.00002V14Z" fill="#394762"/>
<path d="M16 9H7C6.44772 9 6 9.44772 6 10C6 10.5523 6.44772 11 7 11H16C16.5523 11 17 10.5523 17 10C17 9.44772 16.5523 9 16 9Z" fill="#394762"/>
<path d="M14 15H7C6.44772 15 6 15.4477 6 16C6 16.5523 6.44772 17 7 17H14C14.5523 17 15 16.5523 15 16C15 15.4477 14.5523 15 14 15Z" fill="#394762"/>
</g>
<defs>
<clipPath id="clip0">
<rect width="32" height="32" fill="white"/>
</clipPath>
</defs>
</svg>
